src/shared/assets/Delete.svg

<svg width="20" height="21" viewBox="0 0 20 21" fill="none" xmlns="http://www.w3.org/2000/svg">
<path fill-rule="evenodd" clip-rule="evenodd" d="M6.22222 4.27778V2.5H13.7778V4.27778H6.22222ZM4.22222 4.27778V1.61111C4.22222 0.99745 4.71969 0.5 5.33333 0.5H14.6667C15.2803 0.5 15.7778 0.99745 15.7778 1.61111V4.27778H16.6667H19C19.5523 4.27778 20 4.7255 20 5.27778C20 5.83005 19.5523 6.27778 19 6.27778H17.7778V19.3889C17.7778 20.0026 17.2803 20.5 16.6667 20.5H3.33333C2.71969 20.5 2.22222 20.0026 2.22222 19.3889V6.27778H1C0.447713 6.27778 0 5.83005 0 5.27778C0 4.7255 0.447713 4.27778 1 4.27778H3.33333H4.22222ZM14.6667 6.27778H5.33333H4.22222V18.5H15.7778V6.27778H14.6667ZM7.88889 9.05556C8.44118 9.05556 8.88889 9.50328 8.88889 10.0556V14.7222C8.88889 15.2745 8.44118 15.7222 7.88889 15.7222C7.3366 15.7222 6.88889 15.2745 6.88889 14.7222V10.0556C6.88889 9.50328 7.3366 9.05556 7.88889 9.05556ZM13.1111 10.0556C13.1111 9.50328 12.6634 9.05556 12.1111 9.05556C11.5588 9.05556 11.1111 9.50328 11.1111 10.0556V14.7222C11.1111 15.2745 11.5588 15.7222 12.1111 15.7222C12.6634 15.7222 13.1111 15.2745 13.1111 14.7222V10.0556Z" fill="currentColor"/>
</svg>

<svg xmlns="http://www.w3.org/2000/svg" width="20" height="21" fill="none"><path fill="currentColor" fill-rule="evenodd" d="M6.222 4.278V2.5h7.556v1.778H6.222Zm-2 0V1.61C4.222.997 4.72.5 5.333.5h9.334c.613 0 1.11.497 1.11 1.111v2.667H19a1 1 0 1 1 0 2h-1.222v13.11c0 .615-.498 1.112-1.111 1.112H3.333a1.111 1.111 0 0 1-1.11-1.111V6.278H1a1 1 0 0 1 0-2H4.223Zm10.445 2H4.223V18.5h11.555V6.278h-1.111ZM7.889 9.056a1 1 0 0 1 1 1v4.666a1 1 0 1 1-2 0v-4.666a1 1 0 0 1 1-1Zm5.222 1a1 1 0 1 0-2 0v4.666a1 1 0 1 0 2 0v-4.666Z" clip-rule="evenodd"/></svg>
